assets/illustrations/multisize/48/vstx.svg

<svg id="3fa9ab83-bf2b-431d-b1e0-6dc50a51f424" data-name="ICONS" xmlns="http://www.w3.org/2000/svg" xmlns:xlink="http://www.w3.org/1999/xlink" viewBox="0 0 48 48"><defs><linearGradient id="72c0a340-f71a-4c43-9db0-34259c2b34ae" x1="17.75381" y1="42.91826" x2="18.17734" y2="38.93002" gradientUnits="userSpaceOnUse"><stop offset="0" stop-color="#828282" stop-opacity="0"/><stop offset="0.99719" stop-opacity="0.2"/></linearGradient><linearGradient id="482651b7-9e70-4f6b-ac72-6a1b64e3b2bb" x1="12.99899" y1="8.2195" x2="40.00101" y2="42.7805" gradientUnits="userSpaceOnUse"><stop offset="0" stop-color="#fff" stop-opacity="0"/><stop offset="0.86247" stop-color="#5e5e5e" stop-opacity="0.06315"/><stop offset="1" stop-opacity="0.1"/></linearGradient><linearGradient id="e95ed3bd-3b7a-49f6-85d9-f3a7f297d1b3" x1="23.42827" y1="18.72854" x2="43.9713" y2="45.02242" xlink:href="#482651b7-9e70-4f6b-ac72-6a1b64e3b2bb"/><linearGradient id="141b648c-9371-4371-9a9d-f6b8bba9ee6c" x1="28" y1="44.90625" x2="28" y2="42.08751" gradientUnits="userSpaceOnUse"><stop offset="0" stop-color="#828282" stop-opacity="0"/><stop offset="0.86247" stop-color="#303030" stop-opacity="0.06315"/><stop offset="1" stop-opacity="0.1"/></linearGradient><linearGradient id="dfc1a796-e78c-469e-a67e-bde842a51c47" x1="27.83875" y1="8.57677" x2="28.1656" y2="2.34018" gradientUnits="userSpaceOnUse"><stop offset="0" stop-color="#fff" stop-opacity="0"/><stop offset="0.44604" stop-color="#fff" stop-opacity="0.00799"/><stop offset="0.63551" stop-color="#fff" stop-opacity="0.03616"/><stop offset="0.77636" stop-color="#fff" stop-opacity="0.08493"/><stop offset="0.8924" stop-color="#fff" stop-opacity="0.15385"/><stop offset="0.99328" stop-color="#fff" stop-opacity="0.24291"/><stop offset="1" stop-color="#fff" stop-opacity="0.25"/></linearGradient><linearGradient id="3fe1315d-7d65-438a-b76a-629c02014d97" x1="14" y1="39.1875" x2="14" y2="14.75839" gradientUnits="userSpaceOnUse"><stop offset="0" stop-color="#fff" stop-opacity="0"/><stop offset="0.52587" stop-color="#fff" stop-opacity="0.00735"/><stop offset="0.71529" stop-color="#fff" stop-opacity="0.03396"/><stop offset="0.8503" stop-color="#fff" stop-opacity="0.0803"/><stop offset="0.95875" stop-color="#fff" stop-opacity="0.14595"/><stop offset="1" stop-color="#fff" stop-opacity="0.18"/></linearGradient></defs><title>FileTypeIcons_Master_All_NEW</title><polygon points="41 6 41 3 12 3 12 42 15 42 15 45 44 45 44 6 41 6" fill="#fff"/><path d="M26,25v5H21V25h5m1-1H20v7h7V24Z" fill="#c8c8c8"/><polygon points="41 3 12 3 12 9 13 9 41 9 41 5 44 8 44 6 41 3" fill="#3955a3"/><polygon points="43 7 43 44 16 44 16 42 41 42 41 9 40 9 40 41 16 41 15 41 13 41 13 9 12 9 12 42 15 42 15 45 44 45 44 8 43 7" fill="#949494"/><path d="M33.5,32A2.5,2.5,0,1,1,31,34.5,2.50294,2.50294,0,0,1,33.5,32m0-1A3.5,3.5,0,1,0,37,34.5,3.49985,3.49985,0,0,0,33.5,31Z" fill="#c8c8c8"/><path d="M30.5,16A2.5,2.5,0,1,1,28,18.5,2.50294,2.50294,0,0,1,30.5,16m0-1A3.5,3.5,0,1,0,34,18.5,3.49985,3.49985,0,0,0,30.5,15Z" fill="#c8c8c8"/><polygon points="34 27 27 27 27 28 34 28 34 27 34 27" fill="#c8c8c8"/><polygon points="34 28 33 28 33 32 34 32 34 28 34 28" fill="#c8c8c8"/><polygon points="31 21 30 21 30 28 31 28 31 21 31 21" fill="#c8c8c8"/><path d="M16.5,12a.5.5,0,1,0,.5.5.49971.49971,0,0,0-.5-.5Z" fill="#c8c8c8"/><path d="M19.5,12a.5.5,0,1,0,.5.5.49971.49971,0,0,0-.5-.5Z" fill="#c8c8c8"/><path d="M22.5,12a.5.5,0,1,0,.5.5.49971.49971,0,0,0-.5-.5Z" fill="#c8c8c8"/><path d="M25.5,12a.5.5,0,1,0,.5.5.49971.49971,0,0,0-.5-.5Z" fill="#c8c8c8"/><path d="M28.5,12a.5.5,0,1,0,.5.5.49971.49971,0,0,0-.5-.5Z" fill="#c8c8c8"/><path d="M36.5,17a.5.5,0,1,0,.5.5.49971.49971,0,0,0-.5-.5Z" fill="#c8c8c8"/><path d="M36.5,20a.5.5,0,1,0,.5.5.49971.49971,0,0,0-.5-.5Z" fill="#c8c8c8"/><path d="M36.5,23a.5.5,0,1,0,.5.5.49971.49971,0,0,0-.5-.5Z" fill="#c8c8c8"/><path d="M36.5,26a.5.5,0,1,0,.5.5.49971.49971,0,0,0-.5-.5Z" fill="#c8c8c8"/><path d="M36.5,29a.5.5,0,1,0,.5.5.49971.49971,0,0,0-.5-.5Z" fill="#c8c8c8"/><path d="M28.5,37a.5.5,0,1,0,.5.5.49971.49971,0,0,0-.5-.5Z" fill="#c8c8c8"/><path d="M25.5,37a.5.5,0,1,0,.5.5.49971.49971,0,0,0-.5-.5Z" fill="#c8c8c8"/><polygon points="4 17 24 14 24 40 4 37 4 17" fill="#3955a3"/><path d="M19,21,15.33531,33H12.62018L9,21h2.5816l2.2181,8.35146a6.66987,6.66987,0,0,1,.21514,1.19666h.04451a7.51814,7.51814,0,0,1,.23-1.23013L16.49258,21Z" fill="#fff"/><polygon points="24 43 12 43 12 38.2 24 40 24 43" fill="url(#72c0a340-f71a-4c43-9db0-34259c2b34ae)"/><rect x="12" y="9" width="29" height="33" fill="url(#482651b7-9e70-4f6b-ac72-6a1b64e3b2bb)"/><polygon points="41 5 41 42 16 42 15 42 15 45 44 45 44 8 41 5" fill="url(#e95ed3bd-3b7a-49f6-85d9-f3a7f297d1b3)"/><rect x="15" y="42" width="26" height="3" fill="url(#141b648c-9371-4371-9a9d-f6b8bba9ee6c)"/><polygon points="41 3 12 3 12 9 13 9 41 9 41 5 44 8 44 6 41 3" fill="url(#dfc1a796-e78c-469e-a67e-bde842a51c47)"/><polygon points="24 14 4 17 4 37 24 40 24 14" fill="url(#3fe1315d-7d65-438a-b76a-629c02014d97)"/></svg>

<?xml version="1.0" encoding="utf-8"?>
<!-- Generator: Adobe Illustrator 21.1.0, SVG Export Plug-In . SVG Version: 6.00 Build 0)  -->
<svg version="1.1" xmlns="http://www.w3.org/2000/svg" xmlns:xlink="http://www.w3.org/1999/xlink" x="0px" y="0px"
	 viewBox="0 0 48 48" enable-background="new 0 0 48 48" xml:space="preserve">
<g id="TEMPLATE" display="none">
	<g display="inline">
		<path fill="#D0D0D0" d="M48,0v48H0V0H48 M49-1h-1H0h-1v1v48v1h1h48h1v-1V0V-1L49-1z"/>
	</g>
	<g display="inline" opacity="0.1">
		<path fill="#FF3A6D" d="M45,3v42H3V3H45 M48,0H0v48h48V0L48,0z"/>
	</g>
</g>
<g id="ICONS">
	<polygon fill="#FFFFFF" points="41,6 41,3 12,3 12,42 15,42 15,45 44,45 44,6 	"/>
	<g>
		<path fill="#C8C8C8" d="M26,25v5h-5v-5H26 M27,24h-7v7h7V24L27,24z"/>
	</g>
	<polygon fill="#3955A3" points="41,3 12,3 12,9 13,9 41,9 41,5 44,8 44,6 	"/>
	<polygon fill="#949494" points="43,7 43,44 16,44 16,42 41,42 41,9 40,9 40,41 16,41 15,41 13,41 13,9 12,9 12,42 15,42 15,45 
		44,45 44,8 	"/>
	<g>
		<path fill="#C8C8C8" d="M33.5,32c1.3784,0,2.5,1.1216,2.5,2.5S34.8784,37,33.5,37S31,35.8784,31,34.5S32.1216,32,33.5,32 M33.5,31
			c-1.9331,0-3.5,1.5669-3.5,3.5s1.5669,3.5,3.5,3.5s3.5-1.5669,3.5-3.5S35.4331,31,33.5,31L33.5,31z"/>
	</g>
	<g>
		<path fill="#C8C8C8" d="M30.5,16c1.3784,0,2.5,1.1216,2.5,2.5S31.8784,21,30.5,21S28,19.8784,28,18.5S29.1216,16,30.5,16 M30.5,15
			c-1.9331,0-3.5,1.5669-3.5,3.5s1.5669,3.5,3.5,3.5s3.5-1.5669,3.5-3.5S32.4331,15,30.5,15L30.5,15z"/>
	</g>
	<g>
		<polygon fill="#C8C8C8" points="34,27 27,27 27,28 34,28 34,27 		"/>
	</g>
	<g>
		<polygon fill="#C8C8C8" points="34,28 33,28 33,32 34,32 34,28 		"/>
	</g>
	<g>
		<polygon fill="#C8C8C8" points="31,21 30,21 30,28 31,28 31,21 		"/>
	</g>
	<g>
		<path fill="#C8C8C8" d="M16.5,12c-0.2764,0-0.5,0.2236-0.5,0.5s0.2236,0.5,0.5,0.5s0.5-0.2236,0.5-0.5S16.7764,12,16.5,12L16.5,12
			z"/>
	</g>
	<g>
		<path fill="#C8C8C8" d="M19.5,12c-0.2764,0-0.5,0.2236-0.5,0.5s0.2236,0.5,0.5,0.5s0.5-0.2236,0.5-0.5S19.7764,12,19.5,12L19.5,12
			z"/>
	</g>
	<g>
		<path fill="#C8C8C8" d="M22.5,12c-0.2764,0-0.5,0.2236-0.5,0.5s0.2236,0.5,0.5,0.5s0.5-0.2236,0.5-0.5S22.7764,12,22.5,12L22.5,12
			z"/>
	</g>
	<g>
		<path fill="#C8C8C8" d="M25.5,12c-0.2764,0-0.5,0.2236-0.5,0.5s0.2236,0.5,0.5,0.5s0.5-0.2236,0.5-0.5S25.7764,12,25.5,12L25.5,12
			z"/>
	</g>
	<g>
		<path fill="#C8C8C8" d="M28.5,12c-0.2764,0-0.5,0.2236-0.5,0.5s0.2236,0.5,0.5,0.5s0.5-0.2236,0.5-0.5S28.7764,12,28.5,12L28.5,12
			z"/>
	</g>
	<g>
		<path fill="#C8C8C8" d="M36.5,17c-0.2764,0-0.5,0.2236-0.5,0.5s0.2236,0.5,0.5,0.5s0.5-0.2236,0.5-0.5S36.7764,17,36.5,17L36.5,17
			z"/>
	</g>
	<g>
		<path fill="#C8C8C8" d="M36.5,20c-0.2764,0-0.5,0.2236-0.5,0.5s0.2236,0.5,0.5,0.5s0.5-0.2236,0.5-0.5S36.7764,20,36.5,20L36.5,20
			z"/>
	</g>
	<g>
		<path fill="#C8C8C8" d="M36.5,23c-0.2764,0-0.5,0.2236-0.5,0.5s0.2236,0.5,0.5,0.5s0.5-0.2236,0.5-0.5S36.7764,23,36.5,23L36.5,23
			z"/>
	</g>
	<g>
		<path fill="#C8C8C8" d="M36.5,26c-0.2764,0-0.5,0.2236-0.5,0.5s0.2236,0.5,0.5,0.5s0.5-0.2236,0.5-0.5S36.7764,26,36.5,26L36.5,26
			z"/>
	</g>
	<g>
		<path fill="#C8C8C8" d="M36.5,29c-0.2764,0-0.5,0.2236-0.5,0.5s0.2236,0.5,0.5,0.5s0.5-0.2236,0.5-0.5S36.7764,29,36.5,29L36.5,29
			z"/>
	</g>
	<g>
		<path fill="#C8C8C8" d="M28.5,37c-0.2764,0-0.5,0.2236-0.5,0.5s0.2236,0.5,0.5,0.5s0.5-0.2236,0.5-0.5S28.7764,37,28.5,37L28.5,37
			z"/>
	</g>
	<g>
		<path fill="#C8C8C8" d="M25.5,37c-0.2764,0-0.5,0.2236-0.5,0.5s0.2236,0.5,0.5,0.5s0.5-0.2236,0.5-0.5S25.7764,37,25.5,37L25.5,37
			z"/>
	</g>
	<polygon fill="#3955A3" points="4,17 24,14 24,40 4,37 	"/>
	<g>
		<path fill="#FFFFFF" d="M19,21l-3.6647,12h-2.7151L9,21h2.5816l2.2181,8.3515c0.1187,0.4519,0.1903,0.8509,0.2151,1.1967h0.0445
			c0.0345-0.3737,0.1113-0.7837,0.23-1.2301L16.4926,21H19z"/>
	</g>
	<linearGradient id="SVGID_1_" gradientUnits="userSpaceOnUse" x1="17.7538" y1="42.9183" x2="18.1773" y2="38.93">
		<stop  offset="0" style="stop-color:#828282;stop-opacity:0"/>
		<stop  offset="0.1699" style="stop-color:#7E7E7E;stop-opacity:0.0341"/>
		<stop  offset="0.346" style="stop-color:#717171;stop-opacity:0.0694"/>
		<stop  offset="0.5248" style="stop-color:#5D5D5D;stop-opacity:0.1053"/>
		<stop  offset="0.7057" style="stop-color:#404040;stop-opacity:0.1415"/>
		<stop  offset="0.8863" style="stop-color:#1B1B1B;stop-opacity:0.1778"/>
		<stop  offset="0.9972" style="stop-color:#000000;stop-opacity:0.2"/>
	</linearGradient>
	<polygon fill="url(#SVGID_1_)" points="24,43 12,43 12,38.2 24,40 	"/>
	<linearGradient id="SVGID_2_" gradientUnits="userSpaceOnUse" x1="12.999" y1="8.2195" x2="40.001" y2="42.7805">
		<stop  offset="0" style="stop-color:#FFFFFF;stop-opacity:0"/>
		<stop  offset="0.2264" style="stop-color:#FCFCFC;stop-opacity:0.0226"/>
		<stop  offset="0.3626" style="stop-color:#F4F4F4;stop-opacity:0.0363"/>
		<stop  offset="0.475" style="stop-color:#E6E6E6;stop-opacity:0.0475"/>
		<stop  offset="0.5744" style="stop-color:#D1D1D1;stop-opacity:0.0574"/>
		<stop  offset="0.6652" style="stop-color:#B7B7B7;stop-opacity:0.0665"/>
		<stop  offset="0.7498" style="stop-color:#979797;stop-opacity:0.075"/>
		<stop  offset="0.8297" style="stop-color:#707070;stop-opacity:0.083"/>
		<stop  offset="0.9057" style="stop-color:#444444;stop-opacity:0.0906"/>
		<stop  offset="0.9761" style="stop-color:#121212;stop-opacity:0.0976"/>
		<stop  offset="1" style="stop-color:#000000;stop-opacity:0.1"/>
	</linearGradient>
	<rect x="12" y="9" fill="url(#SVGID_2_)" width="29" height="33"/>
	<linearGradient id="SVGID_3_" gradientUnits="userSpaceOnUse" x1="23.4283" y1="18.7285" x2="43.9713" y2="45.0224">
		<stop  offset="0" style="stop-color:#FFFFFF;stop-opacity:0"/>
		<stop  offset="0.2264" style="stop-color:#FCFCFC;stop-opacity:0.0226"/>
		<stop  offset="0.3626" style="stop-color:#F4F4F4;stop-opacity:0.0363"/>
		<stop  offset="0.475" style="stop-color:#E6E6E6;stop-opacity:0.0475"/>
		<stop  offset="0.5744" style="stop-color:#D1D1D1;stop-opacity:0.0574"/>
		<stop  offset="0.6652" style="stop-color:#B7B7B7;stop-opacity:0.0665"/>
		<stop  offset="0.7498" style="stop-color:#979797;stop-opacity:0.075"/>
		<stop  offset="0.8297" style="stop-color:#707070;stop-opacity:0.083"/>
		<stop  offset="0.9057" style="stop-color:#444444;stop-opacity:0.0906"/>
		<stop  offset="0.9761" style="stop-color:#121212;stop-opacity:0.0976"/>
		<stop  offset="1" style="stop-color:#000000;stop-opacity:0.1"/>
	</linearGradient>
	<polygon fill="url(#SVGID_3_)" points="41,5 41,42 16,42 15,42 15,45 44,45 44,8 	"/>
	<linearGradient id="SVGID_4_" gradientUnits="userSpaceOnUse" x1="28" y1="44.9063" x2="28" y2="42.0875">
		<stop  offset="0" style="stop-color:#828282;stop-opacity:0"/>
		<stop  offset="0.2812" style="stop-color:#7F7F7F;stop-opacity:0.0281"/>
		<stop  offset="0.4503" style="stop-color:#777777;stop-opacity:0.045"/>
		<stop  offset="0.5899" style="stop-color:#696969;stop-opacity:0.059"/>
		<stop  offset="0.7133" style="stop-color:#545454;stop-opacity:0.0713"/>
		<stop  offset="0.8259" style="stop-color:#3A3A3A;stop-opacity:0.0826"/>
		<stop  offset="0.9294" style="stop-color:#1A1A1A;stop-opacity:0.0929"/>
		<stop  offset="1" style="stop-color:#000000;stop-opacity:0.1"/>
	</linearGradient>
	<rect x="15" y="42" fill="url(#SVGID_4_)" width="26" height="3"/>
	<linearGradient id="SVGID_5_" gradientUnits="userSpaceOnUse" x1="27.8388" y1="8.5768" x2="28.1656" y2="2.3402">
		<stop  offset="0" style="stop-color:#FFFFFF;stop-opacity:0"/>
		<stop  offset="0.8537" style="stop-color:#FFFFFF;stop-opacity:0.2134"/>
		<stop  offset="1" style="stop-color:#FFFFFF;stop-opacity:0.25"/>
	</linearGradient>
	<polygon fill="url(#SVGID_5_)" points="41,3 12,3 12,9 13,9 41,9 41,5 44,8 44,6 	"/>
	<linearGradient id="SVGID_6_" gradientUnits="userSpaceOnUse" x1="14" y1="39.1875" x2="14" y2="14.7584">
		<stop  offset="0" style="stop-color:#FFFFFF;stop-opacity:0"/>
		<stop  offset="0.8587" style="stop-color:#FFFFFF;stop-opacity:0.1546"/>
		<stop  offset="1" style="stop-color:#FFFFFF;stop-opacity:0.18"/>
	</linearGradient>
	<polygon fill="url(#SVGID_6_)" points="24,14 4,17 4,37 24,40 	"/>
</g>
</svg>
